X:1
T:Thomas and Nancy
M:4/4
L:1/8
K:F
 DE| F2 E4 D2| C2 c4E-G|F-E D4 =Bc| d2 A4| G2|F-A c4G-B| A6 =Bc| d2 A4 G2|\
F-A c4|E-G|F-E D4G-A| B2 A4 G2| F2 E- C3 E2| D6||

